X: 204
T: The Rain-drop's Message
C: Attenhofer
P: Words from the Russian.
Q: "Allegretto grazioso."
%R: air, march
B: "The Everyday Song Book", 1927
F: http://www.library.pitt.edu/happybirthday/pdf/The_Everyday_Song_Book.pdf
Z: 2016 John Chambers <jc:trillian.mit.edu>
M: 2/4
L: 1/8
K: A
% - - - - - - - - - - - - - - - - - - - - - - - - - - - - -
[| c c B B !p!| A2 E E | F A G F | E2 C E |
w: 1.~A-pril show'rs are fall-ing, And drop to drop is call-ing, "Oh!
w: 2.~"'Tis a poor man's dwell-ing; To him I would be tell-ing A
w: 3.~"Fruit trees with their bur-dens Shall bend with-in his gar-den; Of
%
F F G G | A A B- B | c A E c | B> A A2 |]
w: tell me, broth-er, in your flight,* Why the pane so hard you smite?"
w: har-vest good we bring this year, And food and health and hap-py cheer.
w: wheat and oats a good-ly store Shall lie up-on his thresh-ing floor."
% - - - - - - - - - - - - - - - - - - - - - - - - - - - - -

%%sep 1 1 500
%%sep 1 1 500

